src/pos-icons/one-up.svg

<svg height="24" viewBox="0 0 24 24" width="24" xmlns="http://www.w3.org/2000/svg"><path d="m10 19c-.6 0-1-.4-1-1v-1c0-.5.4-1 1-1 .5 0 1 .4 1 1v1c0 .6-.4 1-1 1m5-1v-1c0-.5-.4-1-1-1-.5 0-1 .4-1 1v1c0 .5.4 1 1 1 .6 0 1-.4 1-1m7-6c0 2.6-1.6 4.9-4 6.4v1.6a2 2 0 0 1 -2 2h-8a2 2 0 0 1 -2-2v-1.6c-2.4-1.5-4-3.8-4-6.4a10 10 0 0 1 10-10 10 10 0 0 1 10 10m-15-2c0-1.1-.6-2.1-1.5-2.6-1 1.3-1.5 2.9-1.5 4.6 0 .3 0 .7.1 1 1.6-.1 2.9-1.4 2.9-3m2-1c0 1.7 1.3 3 3 3s3-1.3 3-3-1.3-3-3-3-3 1.3-3 3m7 11v-4.5c-1.2-.3-2.6-.5-4-.5s-2.8.2-4 .5v4.5zm3.9-7c.1-.3.1-.7.1-1 0-1.7-.5-3.3-1.5-4.6-.9.5-1.5 1.5-1.5 2.6 0 1.6 1.3 2.9 2.9 3z"/></svg>

<?xml version="1.0" encoding="UTF-8"?><!DOCTYPE svg PUBLIC "-//W3C//DTD SVG 1.1//EN" "http://www.w3.org/Graphics/SVG/1.1/DTD/svg11.dtd"><svg xmlns="http://www.w3.org/2000/svg" xmlns:xlink="http://www.w3.org/1999/xlink" version="1.1" id="mdi-one-up" width="24" height="24" viewBox="0 0 24 24"><path d="M10,19V19C9.4,19 9,18.6 9,18V17C9,16.5 9.4,16 10,16V16C10.5,16 11,16.4 11,17V18C11,18.6 10.6,19 10,19M15,18V17C15,16.5 14.6,16 14,16V16C13.5,16 13,16.4 13,17V18C13,18.5 13.4,19 14,19V19C14.6,19 15,18.6 15,18M22,12C22,14.6 20.4,16.9 18,18.4V20A2,2 0 0,1 16,22H8A2,2 0 0,1 6,20V18.4C3.6,16.9 2,14.6 2,12A10,10 0 0,1 12,2A10,10 0 0,1 22,12M7,10C7,8.9 6.4,7.9 5.5,7.4C4.5,8.7 4,10.3 4,12C4,12.3 4,12.7 4.1,13C5.7,12.9 7,11.6 7,10M9,9C9,10.7 10.3,12 12,12C13.7,12 15,10.7 15,9C15,7.3 13.7,6 12,6C10.3,6 9,7.3 9,9M16,20V15.5C14.8,15.2 13.4,15 12,15C10.6,15 9.2,15.2 8,15.5V20H16M19.9,13C20,12.7 20,12.3 20,12C20,10.3 19.5,8.7 18.5,7.4C17.6,7.9 17,8.9 17,10C17,11.6 18.3,12.9 19.9,13Z" /></svg>
